static/img/kroki/49624af5f23d1ab34336d7fe5f8cf9a1.svg

<?xml version="1.0" encoding="us-ascii" standalone="no"?><svg xmlns="http://www.w3.org/2000/svg" xmlns:xlink="http://www.w3.org/1999/xlink" contentStyleType="text/css" height="374px" preserveAspectRatio="none" style="width:357px;height:374px;" version="1.1" viewBox="0 0 357 374" width="357px" zoomAndPan="magnify"><defs/><g><!--class azure_cosmos_db_cassandra_cluster--><g id="elem_azure_cosmos_db_cassandra_cluster"><rect codeLine="23" fill="#3D176E" height="39.7891" id="azure_cosmos_db_cassandra_cluster" rx="2.5" ry="2.5" style="stroke:#000D19;stroke-width:0.5;" width="343" x="7" y="328.58"/><ellipse cx="22" cy="348.4745" fill="#ADD1B2" rx="11" ry="11" style="stroke:#181818;stroke-width:1.0;"/><path d="M24.9688,354.1152 Q24.3906,354.412 23.75,354.5527 Q23.1094,354.7089 22.4063,354.7089 Q19.9063,354.7089 18.5781,353.0683 Q17.2656,351.412 17.2656,348.287 Q17.2656,345.162 18.5781,343.5058 Q19.9063,341.8495 22.4063,341.8495 Q23.1094,341.8495 23.75,342.0058 Q24.4063,342.162 24.9688,342.4589 L24.9688,345.1777 Q24.3438,344.5995 23.75,344.3339 Q23.1563,344.0527 22.5313,344.0527 Q21.1875,344.0527 20.5,345.1308 Q19.8125,346.1933 19.8125,348.287 Q19.8125,350.3808 20.5,351.4589 Q21.1875,352.5214 22.5313,352.5214 Q23.1563,352.5214 23.75,352.2558 Q24.3438,351.9745 24.9688,351.3964 L24.9688,354.1152 Z " fill="#000000"/><text fill="#D9B8FF" font-family="Helvetica" font-size="17" lengthAdjust="spacing" textLength="301" x="41" y="354.3598">azure_cosmos_db_cassandra_cluster</text></g><!--class microsoft_resource--><g id="elem_microsoft_resource"><rect codeLine="26" fill="#3D176E" height="39.7891" id="microsoft_resource" rx="2.5" ry="2.5" style="stroke:#000D19;stroke-width:0.5;" width="200" x="78.5" y="167.79"/><ellipse cx="93.5" cy="187.6845" fill="#ADD1B2" rx="11" ry="11" style="stroke:#181818;stroke-width:1.0;"/><path d="M96.4688,193.3252 Q95.8906,193.622 95.25,193.7627 Q94.6094,193.9189 93.9063,193.9189 Q91.4063,193.9189 90.0781,192.2783 Q88.7656,190.622 88.7656,187.497 Q88.7656,184.372 90.0781,182.7158 Q91.4063,181.0595 93.9063,181.0595 Q94.6094,181.0595 95.25,181.2158 Q95.9063,181.372 96.4688,181.6689 L96.4688,184.3877 Q95.8438,183.8095 95.25,183.5439 Q94.6563,183.2627 94.0313,183.2627 Q92.6875,183.2627 92,184.3408 Q91.3125,185.4033 91.3125,187.497 Q91.3125,189.5908 92,190.6689 Q92.6875,191.7314 94.0313,191.7314 Q94.6563,191.7314 95.25,191.4658 Q95.8438,191.1845 96.4688,190.6064 L96.4688,193.3252 Z " fill="#000000"/><text fill="#D9B8FF" font-family="Helvetica" font-size="17" lengthAdjust="spacing" textLength="158" x="112.5" y="193.5698">microsoft_resource</text></g><!--class resource--><g id="elem_resource"><rect codeLine="29" fill="#3D176E" height="39.7891" id="resource" rx="2.5" ry="2.5" style="stroke:#000D19;stroke-width:0.5;" width="113" x="122" y="7"/><ellipse cx="137" cy="26.8945" fill="#ADD1B2" rx="11" ry="11" style="stroke:#181818;stroke-width:1.0;"/><path d="M139.9688,32.5352 Q139.3906,32.832 138.75,32.9727 Q138.1094,33.1289 137.4063,33.1289 Q134.9063,33.1289 133.5781,31.4883 Q132.2656,29.832 132.2656,26.707 Q132.2656,23.582 133.5781,21.9258 Q134.9063,20.2695 137.4063,20.2695 Q138.1094,20.2695 138.75,20.4258 Q139.4063,20.582 139.9688,20.8789 L139.9688,23.5977 Q139.3438,23.0195 138.75,22.7539 Q138.1563,22.4727 137.5313,22.4727 Q136.1875,22.4727 135.5,23.5508 Q134.8125,24.6133 134.8125,26.707 Q134.8125,28.8008 135.5,29.8789 Q136.1875,30.9414 137.5313,30.9414 Q138.1563,30.9414 138.75,30.6758 Q139.3438,30.3945 139.9688,29.8164 L139.9688,32.5352 Z " fill="#000000"/><text fill="#D9B8FF" font-family="Helvetica" font-size="17" lengthAdjust="spacing" textLength="71" x="156" y="32.7798">resource</text></g><!--reverse link microsoft_resource to azure_cosmos_db_cassandra_cluster--><g id="link_microsoft_resource_azure_cosmos_db_cassandra_cluster"><path codeLine="32" d="M178.5,225.84 C178.5,256.36 178.5,297.69 178.5,328.25 " fill="none" id="microsoft_resource-backto-azure_cosmos_db_cassandra_cluster" style="stroke:#FFAF37;stroke-width:2.0;"/><polygon fill="none" points="178.5,207.84,172.5,225.84,184.5,225.84,178.5,207.84" style="stroke:#FFAF37;stroke-width:2.0;"/></g><!--reverse link resource to microsoft_resource--><g id="link_resource_microsoft_resource"><path codeLine="33" d="M178.5,65.05 C178.5,95.57 178.5,136.9 178.5,167.46 " fill="none" id="resource-backto-microsoft_resource" style="stroke:#FFAF37;stroke-width:2.0;"/><polygon fill="none" points="178.5,47.05,172.5,65.05,184.5,65.05,178.5,47.05" style="stroke:#FFAF37;stroke-width:2.0;"/></g><!--SRC=[XP11Jm8n48Nl-okQS2O1YGA95oGnUY56l6zcsoaqR3jafYi1zR_B2fgo2t9zx-jxRxfq1XNwTTmgZxv0banMBgo1mQi9CsscL1AhZhLW1yEc-KWXNWLcu54zOVcEqMbe4czBfrS1HTHDOZs0NYsOgc0EyP4XoDx241DgMeB894PsHHKn6MF6nSZQ9jaCxGnCVtY7BOpO81-HNgzd-kCcShNgtxl_YBdReUgddpQZYAsPhOeVwj-LDP6CR1twwr_S-0B6kB1GjudsUjZ40Vb4do_1qAQcBPIIraX4HehRDKvRL-5uPEpmBFny2Svq_NKATXLZhaayIMwANEz528OXrsLLnwYFBFiwmjvf9Y4RSqQXYZMcxgbsXht_x7QxrnkpneDsKlOD]--></g></svg>

<svg xmlns="http://www.w3.org/2000/svg" width="357" height="374" viewBox="0 0 357 374"><rect width="343" height="39.789" x="7" y="328.58" fill="#3D176E" rx="2.5" ry="2.5" style="stroke:#000d19;stroke-width:.5"/><circle cx="22" cy="348.474" r="11" fill="#ADD1B2" style="stroke:#181818;stroke-width:1"/><path d="M24.969 354.115q-.578.297-1.219.438-.64.156-1.344.156-2.5 0-3.828-1.64-1.312-1.657-1.312-4.782t1.312-4.781q1.328-1.656 3.828-1.656.703 0 1.344.156.656.156 1.219.453v2.719q-.625-.579-1.219-.844-.594-.281-1.219-.281-1.343 0-2.031 1.078-.687 1.062-.687 3.156t.687 3.172q.688 1.062 2.031 1.062.625 0 1.219-.265.594-.281 1.219-.86z"/><text x="41" y="354.36" fill="#D9B8FF" font-family="Helvetica" font-size="17" textLength="301">azure_cosmos_db_cassandra_cluster</text><rect width="200" height="39.789" x="78.5" y="167.79" fill="#3D176E" rx="2.5" ry="2.5" style="stroke:#000d19;stroke-width:.5"/><circle cx="93.5" cy="187.685" r="11" fill="#ADD1B2" style="stroke:#181818;stroke-width:1"/><path d="M96.469 193.325q-.578.297-1.219.438-.64.156-1.344.156-2.5 0-3.828-1.64-1.312-1.657-1.312-4.782t1.312-4.781q1.328-1.656 3.828-1.656.703 0 1.344.156.656.156 1.219.453v2.719q-.625-.578-1.219-.844-.594-.281-1.219-.281-1.344 0-2.031 1.078-.687 1.062-.687 3.156t.687 3.172q.688 1.062 2.031 1.062.625 0 1.219-.265.594-.281 1.219-.86z"/><text x="112.5" y="193.57" fill="#D9B8FF" font-family="Helvetica" font-size="17" textLength="158">microsoft_resource</text><rect width="113" height="39.789" x="122" y="7" fill="#3D176E" rx="2.5" ry="2.5" style="stroke:#000d19;stroke-width:.5"/><circle cx="137" cy="26.895" r="11" fill="#ADD1B2" style="stroke:#181818;stroke-width:1"/><path d="M139.969 32.535q-.578.297-1.219.438-.64.156-1.344.156-2.5 0-3.828-1.64-1.312-1.657-1.312-4.782t1.312-4.781q1.328-1.656 3.828-1.656.703 0 1.344.156.656.156 1.219.453v2.719q-.625-.578-1.219-.844-.594-.281-1.219-.281-1.344 0-2.031 1.078-.687 1.062-.687 3.156t.687 3.172q.688 1.062 2.031 1.062.625 0 1.219-.265.594-.281 1.219-.86z"/><text x="156" y="32.78" fill="#D9B8FF" font-family="Helvetica" font-size="17" textLength="71">resource</text><path fill="none" d="M178.5 225.84v102.41m0-120.41-6 18h12zm0-142.79v102.41m0-120.41-6 18h12z" style="stroke:#ffaf37;stroke-width:2"/></svg>
